assets/static/svgs/logos/logo-luckyslots-short.svg

<svg width="1em" height="1em"  viewBox="0 0 26 31" fill="none" xmlns="http://www.w3.org/2000/svg">
<symbol id="item"
width="1em"
height="1em"
viewBox="0 0 26 31"
fill="none"
>
 <path fill-rule="evenodd" clip-rule="evenodd" d="M14.0139 19.8849C14.0139 23.1316 16.697 25.7636 20.007 25.7636C23.3169 25.7636 26 23.1316 26 19.8849C26 16.6381 23.3169 14.006 20.007 14.006C16.697 14.006 14.0139 16.6381 14.0139 19.8849ZM5.83436 0C9.05656 0 11.6687 2.64165 11.6687 5.90003V19.3848C11.6687 24.4049 15.3102 27.9759 20.007 27.9759C20.4402 27.9759 20.8653 27.943 21.2807 27.8801C19.0312 29.7126 16.1407 30.8148 12.9879 30.8148C5.81487 30.8148 0 25.1107 0 18.0746V5.90003C0 2.64165 2.61214 0 5.83436 0Z" fill="#D82E2E"/> 
</symbol>
</svg>

<svg width="1em" height="1em"    viewBox="0 0 26 31" fill="none" xmlns="http://www.w3.org/2000/svg">
<symbol id="item"
width="1em"
height="1em"
viewBox="0 0 26 31"
fill="none"
>
<path fill-rule="evenodd" clip-rule="evenodd" d="M14.014 19.885c0 3.247 2.683 5.879 5.993 5.879 3.31 0 5.993-2.632 5.993-5.88 0-3.246-2.683-5.878-5.993-5.878-3.31 0-5.993 2.632-5.993 5.879ZM5.834 0c3.223 0 5.835 2.642 5.835 5.9v13.485c0 5.02 3.641 8.59 8.338 8.59.433 0 .858-.032 1.274-.095a13.089 13.089 0 0 1-8.293 2.935C5.815 30.815 0 25.11 0 18.075V5.9C0 2.642 2.612 0 5.834 0Z" fill="#D82E2E"/>
</symbol>
</svg>
